!!!COM:	Josquin des Pres
**kern	**kern
*part2	*part1
*staff2	*staff1
*clefF4	*clefGv2
*k[b-]	*k[b-]
*M2/1	*M2/1
=1-	=1-
1.F	0F
4E	.
4D	.
=2	=2
2E	1G
2C	.
2D	1F
[2F	.
=3	=3
2F]	1G
2E	.
1F	2A
.	2F
=4	=4
2r	1A
2.F	.
.	2r
4E	.
4D	2F
4C	.
=5	=5
2BB-	2G
2D	2F
1C	2G
.	2A
=6	=6
1.BB-	2B-
.	2F
.	1B-
2C	.
=7	=7
2D	2F
2E	2G
2F	2F
2BB-	2G
=8	=8
[0FF	2A
.	2B-
.	2c
.	2F
=9	=9
0FF]	0c
==	==
*-	*-
